module/CMSJava-core/src/shu/cms/reference/camera/Munsell Book Hue-Y.cgats
LGOROWLENGTH 8
CREATED             "5/6/2002"  # Time: 11:27
INSTRUMENTATION     "Unknown"
MEASUREMENT_SOURCE     "Illumination=D50	ObserverAngle=2¡	WhiteBase=Abs	Filter=Unknown"
KEYWORD             "SampleID"
KEYWORD             "SampleName"
BEGIN_DATA_FORMAT
SampleID SampleName	XYZ_X	XYZ_Y	XYZ_Z	Lab_L	Lab_a	Lab_b	
END_DATA_FORMAT
NUMBER_OF_SETS 72
BEGIN_DATA
1	A1   	9.28	6.32	3.27	30.20	29.98	11.49
2	A2   	7.34	6.63	3.64	30.95	9.52	10.30
3	A3   	19.71	19.69	11.13	51.48	3.67	13.75
4	A4   	10.69	11.58	6.54	40.54	-3.53	11.56
5	A5   	5.55	6.26	3.53	30.06	-5.45	9.48
6	A6   	4.69	6.40	3.88	30.39	-17.39	7.79
7	A7   	4.45	6.24	5.60	30.02	-18.95	-2.25
8	A8   	5.26	6.13	6.71	29.73	-7.48	-7.82
9	A9   	4.16	4.40	7.55	24.95	-1.10	-19.54
10	A10  	7.13	6.18	5.20	29.85	12.22	-0.57
11	B1   	22.27	12.45	5.91	41.93	57.10	16.82
12	B2   	13.73	11.57	5.26	40.52	17.48	17.57
13	B3   	12.35	11.83	4.46	40.94	6.59	22.55
14	B4   	16.62	19.15	7.75	50.86	-9.90	24.35
15	B5   	8.81	11.49	5.72	40.39	-17.83	15.05
16	B6   	7.38	11.51	5.94	40.42	-30.90	14.06
17	B7   	7.96	11.09	9.57	39.73	-22.51	-1.45
18	B8   	5.61	6.35	9.68	30.29	-5.81	-18.10
19	B9   	5.49	6.22	12.37	29.97	-5.82	-26.99
20	B10  	8.50	6.58	6.19	30.84	20.61	-3.60
21	C1   	23.60	12.43	3.41	41.89	63.24	30.66
22	C2   	15.71	12.25	4.16	41.61	24.77	25.44
23	C3   	19.85	19.78	4.30	51.59	3.91	41.84
24	C4   	15.70	19.20	4.89	50.92	-15.41	37.42
25	C5   	22.07	30.17	8.05	61.80	-29.49	42.05
26	C6   	6.22	11.44	6.34	40.31	-42.23	12.06
27	C7   	11.56	19.31	16.65	51.05	-42.46	-1.72
28	C8   	5.69	6.13	12.53	29.75	-2.54	-27.83
29	C9   	5.60	5.88	14.72	29.10	-0.81	-34.85
30	C10  	9.13	6.35	7.28	30.29	28.37	-9.22
31	D1   	35.41	20.25	6.45	52.12	64.44	31.93
32	D2   	28.25	20.38	3.83	52.26	37.88	45.83
33	D3   	20.73	19.59	4.47	51.37	9.16	40.45
34	D4   	16.40	19.03	4.34	50.72	-10.53	40.09
35	D5   	34.81	43.02	17.75	71.57	-21.42	31.13
36	D6   	11.78	19.58	11.32	51.36	-42.21	12.97
37	D7   	6.88	11.75	14.39	40.82	-37.51	-13.79
38	D8   	7.88	11.31	19.64	40.10	-24.87	-27.24
39	D9   	9.22	11.09	27.08	39.74	-11.62	-41.87
40	D10  	17.84	11.47	13.98	40.36	41.98	-13.50
41	E1   	48.30	30.25	11.41	61.87	61.46	30.83
42	E2   	16.14	10.93	3.90	39.46	36.48	23.31
43	E3   	31.33	29.91	8.52	61.58	9.35	39.91
44	E4   	14.11	18.71	6.40	50.35	-22.51	29.08
45	E5   	38.16	43.99	9.51	72.22	-13.17	54.78
46	E6   	10.52	19.33	8.14	51.07	-50.18	23.22
47	E7   	7.96	11.49	16.13	40.40	-25.42	-18.84
48	E8   	8.63	11.30	17.86	40.08	-18.03	-23.41
49	E9   	10.41	11.24	27.64	39.98	-3.19	-42.39
50	E10  	21.49	12.15	9.52	41.46	55.46	1.71
51	F1   	44.51	29.80	15.52	61.48	52.46	18.98
52	F2   	24.34	19.34	8.11	51.08	26.87	23.34
53	F3   	25.26	19.88	4.38	51.70	28.11	41.55
54	F4   	13.65	19.52	4.62	51.29	-29.48	39.52
55	F5   	36.49	43.18	5.73	71.68	-16.27	68.98
56	F6   	19.42	29.58	14.51	61.29	-40.05	21.21
57	F7   	19.86	28.90	37.67	60.69	-35.30	-21.79
58	F8   	14.15	18.75	25.13	50.39	-22.46	-20.10
59	F9   	10.69	11.62	23.13	40.61	-3.82	-33.31
60	F10  	31.57	19.76	17.91	51.56	53.41	-3.72
61	G1   	33.50	20.33	9.91	52.21	57.50	18.91
62	G2   	34.67	28.65	13.17	60.47	25.92	23.34
63	G3   	16.86	12.12	2.75	41.40	32.16	34.57
64	G4   	21.16	30.06	6.66	61.71	-33.37	47.53
65	G5   	52.08	58.65	19.39	81.10	-11.34	43.99
66	G6   	22.63	29.16	10.83	60.92	-23.14	30.96
67	G7   	21.74	29.15	34.08	60.91	-27.17	-16.36
68	G8   	13.59	18.65	33.20	50.27	-25.47	-33.40
69	G9   	17.32	18.86	39.16	50.52	-4.59	-41.33
70	G10  	29.30	19.82	17.88	51.63	44.63	-3.53
71	H1   	22.03	19.10	15.09	50.80	17.76	1.64
72	H2   	31.97	28.79	15.90	60.60	15.91	16.53
END_DATA
